src/icons_unused/hds/ui/calendar.svg

<svg xmlns="http://www.w3.org/2000/svg" width="24" height="24" viewBox="0 0 24 24">
  <g fill="none" fill-rule="evenodd">
    <rect width="24" height="24"/>
    <path fill="currentColor" d="M17,2 C17.5522847,2 18,2.44771525 18,3 L18,4 L22,4 L22,21 L2,21 L2,4 L6,4 L6,3 C6,2.44771525 6.44771525,2 7,2 C7.55228475,2 8,2.44771525 8,3 L8,4 L16,4 L16,3 C16,2.44771525 16.4477153,2 17,2 Z M20,11 L4,11 L4,19 L20,19 L20,11 Z M20,6 L4,6 L4,9 L20,9 L20,6 Z"/>
  </g>
</svg>

<svg viewBox="0 0 24 24" role="img" xmlns="http://www.w3.org/2000/svg"><g fill="none" fill-rule="evenodd"><path d="M0 0h24v24H0z"/><path d="M17 2a1 1 0 011 1v1h4v17H2V4h4V3a1 1 0 112 0v1h8V3a1 1 0 011-1zm3 9H4v8h16v-8zm0-5H4v3h16V6z" fill="currentColor"/></g></svg>
